X:1
T:The Ghst of Bras D'OR
M:4/4
L:1/4
K:C
 E G| G/2 C/2- C E G| G C E/2 G/2- G| A- A/2C/2 F A| G4| z2 A B| c c F/2 A/2- A|\
 G E E/2 G/2- G| A D D| E/2 D/2-| D4| z2 z A| G C E G| G C/2 E/2- E G|\
 A C/2 F/2- F A| G4| z2 A B| c/2 c/2- c F A| G/2 E/2- E G- G/2G/2|\
 G/2 F/2- F D B,/2 C/2-| C4| z2||
